X: 1345
T: The Old Grey Gander
R:Reel
N:Collected by Kennedy
B:O'Neill's 1345
Z:Transcribed by Trish O'Neil
M:C|
L:1/8
K:Am
EAABc2(BA)|BGGA BcdB|AEAB cde^f|1gedBc2(BA):|2gedB T(BA)A2||
a2eaa2ge|d2BG (Bd)d2|a2eaa2ba|gedB T(BA)A2|
a2eaa2ge|d2BG (Bd)d2|EAAB cde^f|gedB T(BA)A2|]


